icons/label-star-outline.svg

<svg xmlns="http://www.w3.org/2000/svg" width="24" height="24" viewBox="0 0 24 24">
  <path d="M14.1715729,4 C14.9672223,4 15.7302841,4.31607052 16.2928932,4.87867966 L16.2928932,4.87867966 L21.2928932,9.87867966 C22.4644661,11.0502525 22.4644661,12.9497475 21.2928932,14.1213203 L21.2928932,14.1213203 L16.2928932,19.1213203 C15.7302841,19.6839295 14.9672223,20 14.1715729,20 L14.1715729,20 L5,20 C3.34314575,20 2,18.6568542 2,17 L2,17 L2,7 C2,5.34314575 3.34314575,4 5,4 L5,4 Z M14.1715729,6 L5,6 C4.44771525,6 4,6.44771525 4,7 L4,7 L4,17 C4,17.5522847 4.44771525,18 5,18 L5,18 L14.1715729,18 C14.4367894,18 14.6911433,17.8946432 14.8786797,17.7071068 L14.8786797,17.7071068 L19.8786797,12.7071068 C20.2692039,12.3165825 20.2692039,11.6834175 19.8786797,11.2928932 L19.8786797,11.2928932 L14.8786797,6.29289322 C14.6911433,6.10535684 14.4367894,6 14.1715729,6 L14.1715729,6 Z M10.2212829,8.18140769 C10.3198892,8.23007281 10.3997029,8.30988657 10.448368,8.40849288 L11.3225168,10.1797118 L13.2771729,10.4637399 C13.5504453,10.5034487 13.7397861,10.7571702 13.7000773,11.0304426 C13.684265,11.1392611 13.6330214,11.2398323 13.5542796,11.3165866 L12.1398772,12.6952882 L12.4737723,14.6420462 C12.5204528,14.9142144 12.3376589,15.1726924 12.0654907,15.2193729 C11.9571118,15.2379613 11.8456278,15.220304 11.7482976,15.1691344 L10,14.25 L8.25170244,15.1691344 C8.00728015,15.2976348 7.70496657,15.2036616 7.57646617,14.9592393 C7.52529663,14.861909 7.50763929,14.750425 7.52622772,14.6420462 L7.86012284,12.6952882 L6.4457204,11.3165866 C6.24797861,11.123836 6.24393246,10.8072794 6.43668307,10.6095376 C6.51343737,10.5307958 6.61400857,10.4795522 6.72282709,10.4637399 L8.67748318,10.1797118 L9.55163196,8.40849288 C9.67384311,8.16086605 9.97365603,8.05919655 10.2212829,8.18140769 Z"/>
</svg>

<svg xmlns="http://www.w3.org/2000/svg" viewBox="0 0 24 24">
  <path d="M14.17 4a3 3 0 0 1 2.12.88l5 5a3 3 0 0 1 0 4.24l-5 5a3 3 0 0 1-2.12.88H5a3 3 0 0 1-3-3V7a3 3 0 0 1 3-3zm0 2H5a1 1 0 0 0-1 1v10a1 1 0 0 0 1 1h9.17a1 1 0 0 0 .7-.3l5-5a1 1 0 0 0 0-1.4l-5-5a1 1 0 0 0-.7-.3zm-3.95 2.18c.1.05.18.13.23.23l.87 1.77 1.96.28a.5.5 0 0 1 .27.86l-1.41 1.38.33 1.94a.5.5 0 0 1-.72.53L10 14.25l-1.75.92a.5.5 0 0 1-.72-.53l.33-1.94-1.41-1.38a.5.5 0 0 1 .27-.86l1.96-.28.87-1.77a.5.5 0 0 1 .67-.23z"/>
</svg>
